X:1
T:The Breath of the Spirit
T:The Breath of the Spirit
T:Charles Hutchinson Gabriel
T:Civilla Durfee Martin, 1906
T:Public Domain Courtesy of the Cyber Hymnal™
T:Public Domain Courtesy of the Cyber Hymnal™
C:Charles Hutchinson Gabriel
Z:Public Domain
Z:Courtesy of the Cyber Hymnal™
%%score ( 1 2 ) ( 3 4 )
L:1/8
Q:1/4=100
M:6/8
K:Ab
V:1 treble 
V:2 treble 
V:3 bass 
V:4 bass 
V:1
 [CE] | [CE][DF][DG] [CA][DG][EA] | [EB][EA][EB] [Ec]>[EB][EA] | [FA][EG][DF] [CE][CA][Ec] | %4
w: 1.~Long|years we have yearned for the|show- ers of bless- ing, Have|ear- nest- ly prayed for a-|
w: 2.~The|life has been fruit- less, the|heart dry and thirst- y, The|task of the Mas- ter seemed|
w: 3.~No|tithes have been brought to the|store- house of Heav- en, Our|pow- ers for ser- vice long|
w: 4.~No|souls have been won for the|king- dom of glo- ry, But|pow- er for ser- vice we|
 [=DB][DF][Dc] [_DB]2 [DE] | [CE][DF][DG] [CA][DG][EA] |S [EB][EA][EB] [Ec]<!fermata![Ee][Fd] | %7
w: bun- dance of rain; Praise|God, some are sing- ing the|new song of Heav- en, The|
w: giv- en in vain; But|now ev- ’ry day is a|day of rich bless- ing, The|
w: dor- mant have lain; But|now ev- ’ry im- pulse is|used in God’s glo- ry, The|
w: now may ob- tain; Then|glad- ly as reap- ers we|en- ter the har- vest, The|
 [Ec]>[Ec][Ec] [Ec][EB][EA] | [EB][EA][EG] [EA]3!fine! ||"^Refrain" [Ec]3- [Ec][=D=B][Ec] | %10
w: breath of the Spir- it brings|pow- er a- gain.||
w: breath of the Spir- it brings|pow- er a- gain.|Po- * wer a-|
w: breath of the Spir- it brings|pow- er a- gain.||
w: breath of the Spir- it brings|pow- er a- gain.||
 [CA]3- [CA]2 z | e3- (E/E [Ee])[F=d][Ee] | c3- (E/E [Ec]2) [Ec] | [Ed]>[Ed][Ed] [Ed][Ec][EB] | %14
w: ||||
w: gain, *|Po- * * * wer a-|* gain, * * Our|* hearts have been tuned to|
w: ||||
w: ||||
 [Ec]2 [Ed] !fermata![Ee]2 [Fd]!D.S.! |] %15
w: |
w: the sweet re- frain,|
w: |
w: |
V:2
 x | x6 | x6 | x6 | x6 | x6 | x6 | x6 | x6 || x6 | x6 | E3/2 x6 | E3/2 x6 | x6 | x6 |] %15
V:3
 [A,,A,] | [A,,A,][A,,A,][A,,A,] [A,,E,][B,,E,][C,A,] | [E,G,][E,F,][E,G,] [A,,A,]>[B,,G,][C,A,] | %3
w: ~|~ ~ ~ ~ ~ ~|~ ~ ~ ~ ~ ~|
 [D,D][D,D][D,A,] [A,,A,][A,,A,][A,,A,] | [B,,A,][B,,A,][B,,A,] [E,G,]2 [E,G,] | %5
w: ~ ~ ~ ~ ~ ~|~ ~ ~ ~ ~|
 [A,,A,][A,,A,][A,,A,] [A,,E,][B,,E,][C,A,] | [E,G,][E,F,][E,G,] A,<!fermata![A,C][D,A,] | %7
w: ~ ~ ~ ~ ~ ~|~ ~ ~ ~ ~ ~|
 [E,A,]>[E,A,][E,A,] [E,A,][E,D][E,C] | [E,D][E,C][E,B,] [A,,C]3 || %9
w: ~ ~ ~ ~ ~ ~|~ ~ ~ ~|
 [A,,A,]>[A,,A,][A,,A,] [A,,A,]2 [A,,A,] | [A,,A,]>[A,,A,][A,,A,] [A,,A,]2 z | C3- C=B,[A,C] x3/2 | %12
w: Pow- er a- gain is|on us to- day,|Cold- * ness and|
 A,3- A,2 A, x3/2 | [E,B,]>[E,B,][E,B,] [E,B,][E,A,][E,G,] | A,2 [A,B,] !fermata![A,C]2 [D,A,] |] %15
w: en * a-|||
V:4
 x | x6 | x6 | x6 | x6 | x6 | x3 A,/ x5/2 | x6 | x6 || x6 | x6 | A,>A,A, A,2 x5/2 | %12
w: |||||||||||sin are tak- *|
 (A,>A,A, A,2) A, x3/2 | x6 | A,2 x4 |] %15
w: way. * * * *|||

